flaticon/emoticons/trendy.svg

<svg xmlns="http://www.w3.org/2000/svg" width="32" height="32" viewBox="0 0 24 24">
    <path d="M9.230469 12.617188C9.230469 13.128906 8.816406 13.539062 8.308594 13.539062 7.796875 13.539062 7.382812 13.128906 7.382812 12.617188 7.382812 12.109375 7.796875 11.695312 8.308594 11.695312 8.816406 11.695312 9.230469 12.109375 9.230469 12.617188zM15.691406 12.617188C15.691406 13.128906 15.277344 13.539062 14.769531 13.539062 14.257812 13.539062 13.847656 13.128906 13.847656 12.617188 13.847656 12.109375 14.257812 11.695312 14.769531 11.695312 15.277344 11.695312 15.691406 12.109375 15.691406 12.617188zM16.0625 15.480469C15.855469 15.328125 15.566406 15.367188 15.414062 15.570312 15.261719 15.777344 15.304688 16.066406 15.507812 16.21875L15.847656 16.472656C15.367188 17.050781 14.136719 18.332031 12.503906 18.578125 11.457031 18.730469 10.402344 18.429688 9.367188 17.683594L9.601562 17.511719C9.804688 17.355469 9.84375 17.066406 9.691406 16.863281 9.539062 16.660156 9.25 16.621094 9.046875 16.773438L7.753906 17.742188C7.550781 17.894531 7.507812 18.183594 7.660156 18.386719 7.753906 18.507812 7.890625 18.570312 8.03125 18.570312 8.128906 18.570312 8.222656 18.542969 8.308594 18.480469L8.597656 18.261719C9.6875 19.113281 10.8125 19.542969 11.953125 19.542969 12.183594 19.542969 12.414062 19.523438 12.644531 19.488281 14.628906 19.191406 16.046875 17.691406 16.585938 17.027344L16.800781 17.1875C16.882812 17.25 16.980469 17.28125 17.074219 17.28125 17.214844 17.28125 17.355469 17.214844 17.445312 17.09375 17.597656 16.890625 17.558594 16.601562 17.351562 16.449219zM16.0625 15.480469"/>
    <path d="M 23.941406 4.726562 C 23.765625 3.714844 23.207031 2.832031 22.367188 2.242188 C 21.53125 1.652344 20.511719 1.421875 19.5 1.597656 C 18.109375 1.839844 17.023438 2.804688 16.558594 4.039062 C 14.960938 1.574219 11.515625 1.433594 9.621094 1.789062 C 2.890625 2.996094 1.480469 9.921875 1.464844 9.988281 C 0.640625 10.441406 0 11.523438 0 12.535156 C 0 13.53125 0.585938 14.425781 1.480469 14.835938 C 2.632812 19.335938 6.640625 22.460938 11.308594 22.460938 C 15.976562 22.460938 19.980469 19.335938 21.132812 14.835938 C 22.027344 14.425781 22.613281 13.53125 22.613281 12.535156 C 22.613281 11.578125 22.011719 10.59375 21.179688 10.144531 C 21.109375 9.804688 21.019531 9.472656 20.914062 9.140625 C 21.230469 9.078125 21.535156 8.984375 21.816406 8.847656 C 22.425781 8.59375 22.921875 8.238281 23.234375 7.746094 C 23.261719 7.699219 23.28125 7.652344 23.292969 7.601562 C 23.296875 7.597656 23.296875 7.597656 23.300781 7.59375 C 23.890625 6.753906 24.117188 5.734375 23.941406 4.726562 Z M 21.691406 12.535156 C 21.691406 13.222656 21.25 13.835938 20.59375 14.058594 C 20.441406 14.109375 20.328125 14.234375 20.292969 14.390625 C 19.320312 18.597656 15.625 21.535156 11.308594 21.535156 C 6.992188 21.535156 3.296875 18.597656 2.324219 14.390625 C 2.285156 14.234375 2.171875 14.109375 2.023438 14.058594 C 1.363281 13.835938 0.921875 13.222656 0.921875 12.535156 C 0.921875 11.824219 1.445312 10.96875 2.015625 10.738281 C 2.09375 10.707031 2.160156 10.660156 2.207031 10.597656 C 2.722656 10.132812 7.578125 6.898438 11.125 8.222656 C 12.410156 8.699219 13.476562 8.988281 14.480469 9.132812 C 14.652344 9.15625 14.84375 9.179688 15.050781 9.207031 C 15.199219 9.222656 15.355469 9.242188 15.515625 9.257812 C 15.550781 9.261719 15.582031 9.265625 15.621094 9.269531 C 16.980469 9.414062 18.585938 9.492188 20.003906 9.304688 C 20.136719 9.710938 20.242188 10.125 20.316406 10.539062 C 20.34375 10.699219 20.449219 10.828125 20.597656 10.890625 C 21.203125 11.128906 21.691406 11.867188 21.691406 12.535156 Z M 22.542969 7.0625 C 22.25 7.480469 21.859375 7.808594 21.40625 8.019531 C 21.070312 8.152344 20.679688 8.253906 20.25 8.324219 C 20.246094 8.324219 20.238281 8.324219 20.234375 8.324219 C 19.574219 8.4375 18.859375 8.480469 18.148438 8.480469 C 18.070312 8.480469 17.996094 8.484375 17.921875 8.480469 C 17.871094 8.480469 17.824219 8.480469 17.773438 8.480469 C 17.675781 8.476562 17.578125 8.476562 17.480469 8.472656 C 17.433594 8.472656 17.386719 8.46875 17.339844 8.46875 C 17.238281 8.464844 17.136719 8.457031 17.035156 8.453125 C 16.988281 8.453125 16.945312 8.449219 16.898438 8.445312 C 16.789062 8.441406 16.679688 8.433594 16.566406 8.425781 C 16.53125 8.421875 16.5 8.421875 16.464844 8.417969 C 16.328125 8.40625 16.191406 8.398438 16.050781 8.382812 C 16.011719 8.378906 15.96875 8.375 15.929688 8.371094 C 15.824219 8.363281 15.722656 8.351562 15.621094 8.339844 C 15.578125 8.335938 15.535156 8.332031 15.492188 8.328125 C 15.363281 8.3125 15.230469 8.296875 15.101562 8.28125 C 15.074219 8.277344 15.050781 8.273438 15.027344 8.273438 C 14.886719 8.253906 14.746094 8.234375 14.609375 8.214844 C 13.671875 8.082031 12.667969 7.808594 11.445312 7.355469 C 11.257812 7.285156 11.070312 7.226562 10.878906 7.175781 C 7.785156 6.359375 4.386719 8.007812 2.703125 9.015625 C 3.371094 7.125 5.230469 3.511719 9.789062 2.699219 C 9.796875 2.695312 10.402344 2.585938 11.25 2.585938 C 11.71875 2.585938 12.261719 2.617188 12.816406 2.726562 C 14.816406 3.109375 16.015625 4.226562 16.375 6.050781 C 16.421875 6.296875 16.664062 6.457031 16.910156 6.414062 C 17.160156 6.367188 17.324219 6.128906 17.28125 5.882812 C 17.007812 4.296875 18.070312 2.78125 19.65625 2.507812 C 20.425781 2.375 21.199219 2.546875 21.835938 2.996094 C 22.472656 3.445312 22.898438 4.113281 23.03125 4.882812 C 23.164062 5.648438 22.992188 6.425781 22.542969 7.0625 Z M 22.542969 7.0625"/>
</svg>

<svg xmlns="http://www.w3.org/2000/svg" width="32" height="32" viewBox="0 0 24 24">
    <path d="M9.23 12.617a.921.921 0 0 1-.921.922.922.922 0 1 1 0-1.844c.507 0 .921.414.921.922zm0 0M15.691 12.617a.921.921 0 1 1-1.842.002.921.921 0 0 1 1.842-.002zm0 0M16.063 15.48a.465.465 0 0 0-.649.09.465.465 0 0 0 .094.649l.34.254c-.48.578-1.711 1.859-3.344 2.105-1.047.152-2.102-.148-3.137-.894l.235-.172a.466.466 0 0 0 .09-.649.46.46 0 0 0-.645-.09l-1.293.97a.461.461 0 1 0 .555.737l.289-.218c1.09.851 2.214 1.281 3.355 1.281.23 0 .461-.02.692-.055 1.984-.297 3.402-1.797 3.94-2.46l.216.16a.454.454 0 0 0 .644-.094.458.458 0 0 0-.093-.645zm0 0"/>
    <path d="M23.941 4.727a3.813 3.813 0 0 0-1.574-2.485 3.812 3.812 0 0 0-2.867-.644 3.849 3.849 0 0 0-2.941 2.441C14.96 1.574 11.516 1.434 9.62 1.79c-6.73 1.207-8.14 8.133-8.156 8.2C.64 10.44 0 11.522 0 12.534c0 .996.586 1.89 1.48 2.3a10.103 10.103 0 0 0 9.829 7.626c4.668 0 8.671-3.125 9.824-7.625a2.534 2.534 0 0 0 1.48-2.3c0-.958-.601-1.942-1.433-2.391-.07-.34-.16-.672-.266-1.004.316-.063.621-.157.902-.293.61-.254 1.106-.61 1.418-1.102a.511.511 0 0 0 .059-.144l.008-.008c.59-.84.816-1.86.64-2.867zm-2.25 7.808c0 .688-.441 1.3-1.097 1.524a.454.454 0 0 0-.301.332 9.18 9.18 0 0 1-8.984 7.144 9.18 9.18 0 0 1-8.985-7.144.469.469 0 0 0-.3-.332 1.61 1.61 0 0 1-1.102-1.524c0-.71.523-1.566 1.094-1.797a.438.438 0 0 0 .191-.14c.516-.465 5.371-3.7 8.918-2.375 1.285.476 2.352.765 3.355.91l.57.074c.15.016.305.035.466.05l.105.013c1.36.144 2.965.222 4.383.035.133.406.238.82.312 1.234.028.16.133.29.282.352.605.238 1.093.976 1.093 1.644zm.852-5.473a2.863 2.863 0 0 1-1.137.958 5.655 5.655 0 0 1-1.156.304h-.016a12.51 12.51 0 0 1-2.086.156c-.078 0-.152.004-.226 0h-.149c-.097-.003-.195-.003-.293-.007-.046 0-.093-.004-.14-.004-.102-.004-.203-.012-.305-.016-.047 0-.09-.004-.137-.008-.109-.004-.218-.011-.332-.02-.035-.003-.066-.003-.101-.007-.137-.012-.274-.02-.414-.035l-.121-.012c-.106-.008-.207-.02-.309-.031l-.129-.012-.39-.047c-.028-.004-.051-.008-.075-.008l-.418-.058c-.937-.133-1.941-.406-3.164-.86a5.949 5.949 0 0 0-.566-.18c-3.094-.816-6.492.833-8.176 1.84C3.371 7.126 5.23 3.513 9.79 2.7a8.51 8.51 0 0 1 1.461-.113c.469 0 1.012.031 1.566.14 2 .383 3.2 1.5 3.559 3.325a.462.462 0 0 0 .906-.168 2.921 2.921 0 0 1 2.375-3.375c.77-.133 1.543.039 2.18.488a2.897 2.897 0 0 1 1.195 1.887 2.902 2.902 0 0 1-.488 2.18zm0 0"/>
</svg>
